X:461
T:
R:vals
S:Ur en gammal notbok i Gotlands fornsal.
O:Gotland
M:3/4
L:1/8
K:D
a3 ^gaf|d2 f2 f2|(ef)(ge)(cA)|(dc)(de)(fg)|
a3 ^gaf|d2 f2 f2|(ef)(ge)(cB)|A4 z2:|
|:f3 gfe|d2 f2 f2|e2 c2 f2|d2 Bcde|
f2 gfgf|e2 c2 f2|d2 c2 ^E2|F4 A2|
a3 ^gaf|d2 f2 f2|(ef)(ge)(cA)|(dc)(de)(fg)|
a3 ^gaf|d2 f2 f2|(ef)(ge)(cB)|A4 z2:|
|:A2 F2 A2|B2 G2 B2|c2 A2 c2|(ed)(cB) A2|
a2 f2 d2|B2 e2 g2|b2 a2 c2|d4 z2|]

